X: 32271
T: Pict's Tune, The
R: polka
M: 2/4
K: Aminor
z d2 c|B2 B3/2A/|B2 d3/2B/|E4|{c}B2 d3/2B/|B4|{c}B3/2c/ d3/2B/|A4|
{c}B2 d3/2c/|B4|{A}B2 d3/2B/|E4|{c}B2 d3/2c/|B4|{A}B3/2c/ d3/2B/|A3 c|
BG G2|g2 ed|g2 ed|g2 ed|B2 G2|fg af|ge dB|A3 c|
BG G2|g2 dd|g2 dd|g2 ed|B2 G2|fg af|ge dB|A3 c|

